lib/brands/logos/citrix.svg

<svg xmlns="http://www.w3.org/2000/svg" fill="none" aria-hidden="true" viewBox="0 0 183 65"><g id="Citrix"><g id="Union"><path fill="#005463" d="M70.7785 56.2839C70.7785 57.9599 69.8643 59.0265 68.2644 59.0265C66.6646 59.0265 65.8266 57.9599 65.8266 56.2839V8.44082C65.8266 6.68861 66.7408 5.62204 68.3406 5.62204C69.9405 5.62204 70.7785 6.61242 70.7785 8.44082V19.335H79.3872C80.9109 19.335 81.8251 20.173 81.8251 21.5443C81.8251 22.9156 80.9109 23.7537 79.3872 23.7537H70.7785V56.2839Z"/><path fill="#005463" d="M4.57495 38.9903C4.57495 26.801 12.7266 18.2684 24.3826 18.2684C32.2295 18.2684 38.6289 22.23 41.2191 28.3246C41.5238 28.8579 41.6 29.4674 41.6 30.0768C41.6 31.372 40.5334 32.3623 39.3145 32.3623H39.1621C38.0194 32.3623 37.029 31.6005 36.7243 30.5339C34.7435 25.582 30.1725 22.7633 24.4588 22.7633C15.7739 22.7633 9.60305 29.3912 9.60305 38.9903C9.60305 48.5132 15.6215 55.1411 24.3826 55.1411C30.0963 55.1411 34.4388 52.3985 36.7243 46.6086C37.029 45.542 38.0194 44.7802 39.086 44.7802C40.4573 44.7802 41.5238 45.8468 41.5238 47.2181V47.2943C41.5238 47.8275 41.4476 48.3608 41.2191 48.8941C38.8574 55.4459 32.5342 59.6359 24.3826 59.6359C12.6504 59.6359 4.57495 51.1796 4.57495 38.9903Z"/><path fill="#005463" d="M107.117 24.3631C108.412 24.3631 109.403 23.2965 109.403 22.0014C109.403 21.0872 108.946 20.2492 108.108 19.7921C106.127 18.7255 103.918 18.1923 101.632 18.2684C97.9753 18.1923 94.4709 19.7921 92.2616 22.6871V21.6967C92.2616 19.8683 91.4236 18.8779 89.8237 18.8779C88.2239 18.8779 87.3097 19.9445 87.3097 21.6967V56.2839C87.3097 58.0361 88.2239 59.0265 89.8237 59.0265C91.4236 59.0265 92.2616 58.0361 92.2616 56.2839V33.5051C92.2616 27.639 95.6898 22.9918 101.023 22.9918C102.47 22.9156 103.841 23.2204 105.06 23.8298C105.594 24.1345 106.203 24.3631 106.889 24.3631H107.117Z"/><path fill="#005463" d="M114.507 21.6967C114.507 19.9445 115.421 18.8779 117.021 18.8779C118.621 18.8779 119.459 19.8683 119.459 21.6967V56.2839C119.459 57.9599 118.545 59.0265 116.945 59.0265C115.345 59.0265 114.507 57.9599 114.507 56.2839V21.6967Z"/><path fill="#005463" d="M52.9515 18.8779C51.3516 18.8779 50.4374 19.9445 50.4374 21.6967V56.2839C50.4374 57.9599 51.2754 59.0265 52.8753 59.0265C54.4751 59.0265 55.3893 57.9599 55.3893 56.2839V21.6967C55.3893 19.8683 54.5513 18.8779 52.9515 18.8779Z"/><path fill="#005463" d="M52.9512 13.5451C55.1391 13.5451 56.9127 11.7715 56.9127 9.58357C56.9127 7.39568 55.1391 5.62204 52.9512 5.62204C50.7633 5.62204 48.9896 7.39568 48.9896 9.58357C48.9896 11.7715 50.7633 13.5451 52.9512 13.5451Z"/><path fill="#005463" d="M131.953 58.0361L145.59 42.0376L159.303 58.0361C159.76 58.6456 160.522 59.0265 161.284 59.0265C162.579 59.1027 163.646 58.0361 163.646 56.741C163.646 56.1315 163.417 55.4459 162.96 54.9888L148.714 38.8379L162.427 23.068C162.96 22.6109 163.265 21.9252 163.265 21.2396V21.1634C163.265 19.8683 162.122 18.8779 160.827 18.9541C160.065 18.9541 159.379 19.335 158.922 19.9445L145.666 35.562L132.41 19.9445C131.953 19.335 131.268 18.9541 130.506 18.9541H130.43C129.058 18.8779 127.992 19.9445 127.992 21.2396C127.992 21.9252 128.297 22.6109 128.83 23.068L142.543 38.8379L128.297 54.9888C127.839 55.4459 127.611 56.0553 127.611 56.741C127.611 58.0361 128.677 59.0265 129.973 59.0265C130.734 59.0265 131.496 58.6456 131.953 58.0361Z"/><path fill="#005463" d="M173.244 54.8364H171.797V58.6456H171.188V54.8364H169.74V54.3793H173.244V54.8364Z"/><path fill="#005463" d="M178.425 54.3793V58.6456H177.892V55.903L177.968 55.065L177.892 55.3697L176.52 58.5694H176.063L174.692 55.3697L174.54 55.065L174.616 55.903V58.6456H174.083V54.3793H174.768L176.063 57.4266L176.292 57.9599L176.444 57.4266L177.739 54.3793H178.425Z"/><path fill="#005463" d="M149.552 9.58357C149.552 11.7715 147.778 13.5451 145.59 13.5451C143.403 13.5451 141.629 11.7715 141.629 9.58357C141.629 7.39568 143.403 5.62204 145.59 5.62204C147.778 5.62204 149.552 7.39568 149.552 9.58357Z"/></g></g></svg>

<svg xmlns="http://www.w3.org/2000/svg" fill="none" aria-hidden="true" viewBox="0 0 183 65"><path fill="#005463" d="M70.778 56.284c0 1.676-.914 2.742-2.514 2.742-1.6 0-2.437-1.066-2.437-2.742V8.44c0-1.752.914-2.819 2.514-2.819 1.6 0 2.438.99 2.438 2.819v10.894h8.608c1.524 0 2.438.838 2.438 2.21 0 1.37-.914 2.209-2.438 2.209h-8.609v32.53ZM4.575 38.99c0-12.189 8.152-20.722 19.808-20.722 7.847 0 14.246 3.962 16.836 10.057.305.533.381 1.142.381 1.752a2.292 2.292 0 0 1-2.285 2.285h-.153a2.537 2.537 0 0 1-2.438-1.828c-1.98-4.952-6.551-7.77-12.265-7.77-8.685 0-14.856 6.627-14.856 16.226 0 9.523 6.018 16.151 14.78 16.151 5.713 0 10.056-2.742 12.341-8.532.305-1.067 1.295-1.829 2.362-1.829a2.407 2.407 0 0 1 2.438 2.438v.076a3.98 3.98 0 0 1-.305 1.6c-2.362 6.552-8.685 10.742-16.836 10.742-11.733 0-19.808-8.456-19.808-20.646Zm102.542-14.627c1.295 0 2.286-1.066 2.286-2.362 0-.914-.457-1.752-1.295-2.209a12.701 12.701 0 0 0-6.476-1.524c-3.657-.076-7.161 1.524-9.37 4.42v-.991c0-1.829-.838-2.82-2.438-2.82s-2.514 1.068-2.514 2.82v34.587c0 1.752.914 2.742 2.514 2.742 1.6 0 2.438-.99 2.438-2.742V33.505c0-5.866 3.428-10.513 8.761-10.513a8.029 8.029 0 0 1 4.037.838c.534.305 1.143.533 1.829.533h.228Zm7.39-2.666c0-1.752.914-2.82 2.514-2.82 1.6 0 2.438.991 2.438 2.82v34.587c0 1.676-.914 2.742-2.514 2.742-1.6 0-2.438-1.066-2.438-2.742V21.697Zm-61.555-2.819c-1.6 0-2.515 1.067-2.515 2.819v34.587c0 1.676.838 2.742 2.438 2.742s2.514-1.066 2.514-2.742V21.697c0-1.829-.838-2.82-2.438-2.82Zm-.001-5.333a3.961 3.961 0 1 0 0-7.923 3.961 3.961 0 0 0 0 7.923Zm79.002 44.491 13.637-15.998 13.713 15.998c.457.61 1.219.99 1.981.99 1.295.077 2.362-.99 2.362-2.285 0-.61-.229-1.295-.686-1.752l-14.246-16.151 13.713-15.77a2.435 2.435 0 0 0 .838-1.828v-.077c0-1.295-1.143-2.285-2.438-2.209-.762 0-1.448.381-1.905.99l-13.256 15.618-13.256-15.617c-.457-.61-1.142-.99-1.904-.99h-.076a2.283 2.283 0 0 0-2.438 2.285c0 .685.305 1.37.838 1.828l13.713 15.77-14.246 16.15c-.458.458-.686 1.067-.686 1.753 0 1.295 1.066 2.285 2.362 2.285.761 0 1.523-.38 1.98-.99Zm41.291-3.2h-1.447v3.81h-.609v-3.81h-1.448v-.457h3.504v.457Zm5.181-.456v4.266h-.533v-2.743l.076-.838-.076.305-1.372 3.2h-.457l-1.371-3.2-.152-.305.076.838v2.743h-.533v-4.267h.685l1.295 3.048.229.533.152-.533 1.295-3.048h.686ZM149.552 9.584a3.962 3.962 0 1 1-7.924-.001 3.962 3.962 0 0 1 7.924 0Z"/></svg>
